flaticon/symbols/vitriol.svg

<svg xmlns="http://www.w3.org/2000/svg" width="32" height="32" viewBox="0 0 24 24">
    <path d="M 22.355469 4.75 L 20.941406 3.335938 C 20.488281 2.886719 19.699219 2.882812 19.242188 3.335938 C 18.957031 3.625 18.84375 4.027344 18.914062 4.398438 L 13.199219 4.398438 L 13.199219 1.199219 C 13.199219 0.539062 12.660156 0 12 0 C 11.339844 0 10.800781 0.539062 10.800781 1.199219 L 10.800781 4.398438 L 5.089844 4.398438 C 5.101562 4.328125 5.105469 4.257812 5.105469 4.1875 C 5.105469 3.863281 4.980469 3.5625 4.753906 3.335938 C 4.289062 2.871094 3.527344 2.871094 3.058594 3.335938 L 1.644531 4.75 C 1.175781 5.21875 1.175781 5.980469 1.644531 6.449219 L 3.058594 7.863281 C 3.511719 8.316406 4.304688 8.316406 4.757812 7.863281 C 5.042969 7.574219 5.15625 7.175781 5.085938 6.800781 L 10.800781 6.800781 L 10.800781 8.089844 C 6.898438 8.675781 4 12.011719 4 16 C 4 20.410156 7.589844 24 12 24 C 16.410156 24 20 20.410156 20 16 C 20 12.011719 17.101562 8.675781 13.199219 8.089844 L 13.199219 6.800781 L 18.910156 6.800781 C 18.898438 6.871094 18.894531 6.941406 18.894531 7.015625 C 18.894531 7.335938 19.019531 7.636719 19.246094 7.863281 C 19.710938 8.328125 20.472656 8.332031 20.941406 7.863281 L 22.355469 6.449219 C 22.824219 5.980469 22.824219 5.21875 22.355469 4.75 Z M 21.789062 5.882812 L 20.375 7.296875 C 20.21875 7.453125 19.964844 7.453125 19.808594 7.296875 C 19.734375 7.222656 19.691406 7.121094 19.691406 7.015625 C 19.691406 6.90625 19.734375 6.808594 19.808594 6.730469 L 20.542969 6 L 12.398438 6 L 12.398438 8.804688 L 12.757812 8.839844 C 16.429688 9.226562 19.199219 12.304688 19.199219 16 C 19.199219 19.96875 15.96875 23.199219 12 23.199219 C 8.03125 23.199219 4.800781 19.96875 4.800781 16 C 4.800781 12.304688 7.570312 9.226562 11.242188 8.839844 L 11.601562 8.804688 L 11.601562 6 L 3.453125 6 L 4.191406 6.730469 C 4.347656 6.886719 4.347656 7.140625 4.191406 7.296875 C 4.039062 7.449219 3.777344 7.449219 3.625 7.296875 L 2.210938 5.882812 C 2.054688 5.726562 2.054688 5.472656 2.210938 5.316406 L 3.625 3.902344 C 3.78125 3.746094 4.035156 3.746094 4.191406 3.902344 C 4.265625 3.976562 4.308594 4.078125 4.308594 4.1875 C 4.308594 4.292969 4.265625 4.394531 4.1875 4.46875 L 3.464844 5.199219 L 11.601562 5.199219 L 11.601562 1.199219 C 11.601562 0.980469 11.777344 0.800781 12 0.800781 C 12.222656 0.800781 12.398438 0.980469 12.398438 1.199219 L 12.398438 5.199219 L 20.546875 5.199219 L 19.808594 4.46875 C 19.652344 4.3125 19.652344 4.058594 19.808594 3.902344 C 19.960938 3.75 20.222656 3.753906 20.375 3.902344 L 21.789062 5.316406 C 21.945312 5.472656 21.945312 5.726562 21.789062 5.882812 Z M 21.789062 5.882812"/>
    <path d="M 5.601562 16 C 5.601562 19.527344 8.472656 22.398438 12 22.398438 C 15.527344 22.398438 18.398438 19.527344 18.398438 16 C 18.398438 12.472656 15.527344 9.601562 12 9.601562 C 8.472656 9.601562 5.601562 12.472656 5.601562 16 Z M 17.601562 16 C 17.601562 19.089844 15.089844 21.601562 12 21.601562 C 8.910156 21.601562 6.398438 19.089844 6.398438 16 C 6.398438 12.910156 8.910156 10.398438 12 10.398438 C 15.089844 10.398438 17.601562 12.910156 17.601562 16 Z M 17.601562 16"/>
</svg>

<svg xmlns="http://www.w3.org/2000/svg" width="32" height="32" viewBox="0 0 24 24">
    <path d="M22.355 4.75l-1.414-1.414c-.453-.45-1.242-.453-1.699 0a1.2 1.2 0 0 0-.328 1.062H13.2V1.2C13.2.54 12.66 0 12 0s-1.2.54-1.2 1.2v3.198H5.09c.012-.07.015-.14.015-.21 0-.325-.125-.625-.351-.852a1.205 1.205 0 0 0-1.695 0L1.645 4.75a1.202 1.202 0 0 0 0 1.7l1.414 1.413c.453.453 1.246.453 1.699 0 .285-.289.398-.687.328-1.062H10.8V8.09A7.977 7.977 0 0 0 4 16c0 4.41 3.59 8 8 8s8-3.59 8-8a7.977 7.977 0 0 0-6.8-7.91V6.8h5.71c-.012.071-.015.141-.015.216 0 .32.125.62.351.847a1.201 1.201 0 0 0 1.695 0l1.414-1.414a1.202 1.202 0 0 0 0-1.699zm-.566 1.133l-1.414 1.414a.4.4 0 0 1-.566-.567l.734-.73h-8.145v2.805l.36.035A7.183 7.183 0 0 1 19.199 16c0 3.969-3.23 7.2-7.199 7.2S4.8 19.968 4.8 16a7.183 7.183 0 0 1 6.442-7.16l.36-.035V6H3.453l.738.73a.4.4 0 0 1 0 .567.408.408 0 0 1-.566 0L2.211 5.883a.4.4 0 0 1 0-.567l1.414-1.414a.4.4 0 0 1 .684.285.387.387 0 0 1-.122.282l-.722.73h8.137v-4a.398.398 0 1 1 .796 0v4h8.149l-.738-.73a.4.4 0 0 1 0-.567.412.412 0 0 1 .566 0l1.414 1.414a.4.4 0 0 1 0 .567zm0 0"/>
    <path d="M5.602 16A6.407 6.407 0 0 0 12 22.398 6.407 6.407 0 0 0 18.398 16 6.407 6.407 0 0 0 12 9.602 6.407 6.407 0 0 0 5.602 16zm12 0A5.606 5.606 0 0 1 12 21.602 5.606 5.606 0 0 1 6.398 16 5.606 5.606 0 0 1 12 10.398 5.606 5.606 0 0 1 17.602 16zm0 0"/>
</svg>
